assets/Fog/Flat/fog_flat.svg

<svg width="32" height="32" viewBox="0 0 32 32" fill="none" xmlns="http://www.w3.org/2000/svg">
<path d="M20.5542 2H5.66992C6.49988 6 7.56575 7.98678 9.99992 9C17.8062 6.76963 21.5459 8.67577 20.5542 2Z" fill="#636363"/>
<path d="M12.1785 8.45119C11.1715 5.76698 9.30017 3.50613 6.91 2H5.67C3.64 2 2 3.64 2 5.67V26C2 28.2091 3.79086 30 6 30H26C28.2091 30 30 28.2091 30 26V5.67C30 3.65 28.36 2 26.33 2H20.5542L20.5546 2.00289C18.1403 3.30728 16.2069 5.38587 15.082 7.90405C14.2111 8.04947 13.2425 8.21697 12.1785 8.45119Z" fill="#9B9B9B"/>
<path d="M17.5 29C23.8513 29 29 23.8513 29 17.5C29 11.1487 23.8513 6 17.5 6C11.1487 6 6 11.1487 6 17.5C6 23.8513 11.1487 29 17.5 29Z" fill="#BEBEBE"/>
<path d="M26.33 29C27.8077 29 29 27.8077 29 26.33V17.0618C25.0524 17.5536 22 20.9187 22 25L26.33 29Z" fill="#D3D3D3"/>
<path d="M15.39 24C15.78 22.9 16 21.73 16 20.5C16 14.7 11.3 10 5.5 10C4.6359 10 3.80141 10.1086 3 10.3084V26.33C3 27.8077 4.19228 29 5.67 29L15.39 24Z" fill="#D3D3D3"/>
<path d="M5.05127 28.9283C5.24983 28.9752 5.45706 29 5.67022 29H26.3302C26.5434 29 26.7507 28.9752 26.9493 28.9283C26.4128 23.3541 21.7185 19 16.0002 19C10.2914 19 5.58868 23.3541 5.05127 28.9283Z" fill="#E6E6E6"/>
</svg>

<svg xmlns="http://www.w3.org/2000/svg" width="32" height="32" fill="none"><path fill="#636363" d="M20.554 2H5.67C6.5 6 7.566 7.987 10 9c7.806-2.23 11.546-.324 10.554-7Z"/><path fill="#9B9B9B" d="M12.178 8.451A13.071 13.071 0 0 0 6.91 2H5.67C3.64 2 2 3.64 2 5.67V26a4 4 0 0 0 4 4h20a4 4 0 0 0 4-4V5.67C30 3.65 28.36 2 26.33 2h-5.776v.003a12.525 12.525 0 0 0-5.472 5.901c-.87.145-1.84.313-2.904.547Z"/><path fill="#BEBEBE" d="M17.5 29C23.851 29 29 23.851 29 17.5S23.851 6 17.5 6 6 11.149 6 17.5 11.149 29 17.5 29Z"/><path fill="#D3D3D3" d="M26.33 29A2.666 2.666 0 0 0 29 26.33v-9.268A7.999 7.999 0 0 0 22 25l4.33 4ZM15.39 24c.39-1.1.61-2.27.61-3.5C16 14.7 11.3 10 5.5 10c-.864 0-1.699.109-2.5.308V26.33A2.666 2.666 0 0 0 5.67 29l9.72-5Z"/><path fill="#E6E6E6" d="M5.051 28.928c.199.047.406.072.62.072h20.66c.212 0 .42-.025.618-.072A10.995 10.995 0 0 0 16 19c-5.709 0-10.411 4.354-10.949 9.928Z"/></svg>
